public/assets/images/fb_sprite_footer.svg

<svg width="25" height="50" viewBox="0 0 25 50" fill="none" xmlns="http://www.w3.org/2000/svg">
<g clip-path="url(#clip0_2072_145)">
<path d="M21.34 0H3.66C2.68931 0 1.75837 0.385606 1.07199 1.07199C0.385606 1.75837 0 2.68931 0 3.66L0 21.34C0 22.3107 0.385606 23.2416 1.07199 23.928C1.75837 24.6144 2.68931 25 3.66 25H11V16.16H8.11V11.77H11V8.77C11 7.60478 11.4622 6.48713 12.2852 5.66226C13.1082 4.83739 14.2248 4.37265 15.39 4.37H19.83V8.77H15.43V11.77H19.87L19.14 16.16H15.43V25H21.34C22.3107 25 23.2416 24.6144 23.928 23.928C24.6144 23.2416 25 22.3107 25 21.34V3.66C25 2.68931 24.6144 1.75837 23.928 1.07199C23.2416 0.385606 22.3107 0 21.34 0Z" fill="#3E3F55"/>
<path d="M21.34 25H3.66C2.68931 25 1.75837 25.3856 1.07199 26.072C0.385606 26.7584 0 27.6893 0 28.66L0 46.34C0 47.3107 0.385606 48.2416 1.07199 48.928C1.75837 49.6144 2.68931 50 3.66 50H11V41.16H8.11V36.77H11V33.77C11 32.6048 11.4622 31.4871 12.2852 30.6623C13.1082 29.8374 14.2248 29.3726 15.39 29.37H19.83V33.77H15.43V36.77H19.87L19.14 41.16H15.43V50H21.34C22.3107 50 23.2416 49.6144 23.928 48.928C24.6144 48.2416 25 47.3107 25 46.34V28.66C25 27.6893 24.6144 26.7584 23.928 26.072C23.2416 25.3856 22.3107 25 21.34 25Z" fill="#8D8E8F"/>
</g>
<defs>
<clipPath id="clip0_2072_145">
<rect width="25" height="50" fill="white"/>
</clipPath>
</defs>
</svg>

<svg id="Layer_1" data-name="Layer 1" xmlns="http://www.w3.org/2000/svg" viewBox="0 0 25 50"><defs><style>.cls-1{fill:#f2f2f2;}.cls-2{fill:#8d8e8f;}</style></defs><path class="cls-1" d="M21.34,0H3.66A3.66,3.66,0,0,0,0,3.66V21.34A3.66,3.66,0,0,0,3.66,25H11V16.16H8.11V11.77H11v-3a4.4,4.4,0,0,1,4.39-4.4h4.44v4.4H15.43v3h4.44l-.73,4.39H15.43V25h5.91A3.66,3.66,0,0,0,25,21.34V3.66A3.66,3.66,0,0,0,21.34,0Z"/><path class="cls-2" d="M21.34,25H3.66A3.66,3.66,0,0,0,0,28.66V46.34A3.66,3.66,0,0,0,3.66,50H11V41.16H8.11V36.77H11v-3a4.4,4.4,0,0,1,4.39-4.4h4.44v4.4H15.43v3h4.44l-.73,4.39H15.43V50h5.91A3.66,3.66,0,0,0,25,46.34V28.66A3.66,3.66,0,0,0,21.34,25Z"/></svg>
